public/avatar/hat/69.svg

<svg xmlns:xlink="http://www.w3.org/1999/xlink" height="92.9" width="100.7" xmlns="http://www.w3.org/2000/svg"><g transform="translate(38.65 49.75)"><use height="23.9" transform="translate(-23.5 -8)" width="45.15" xlink:href="#a"/><use height="39.6" transform="matrix(.5 0 0 .5 -3.6 -3.6)" width="32.7" xlink:href="#text0"/></g><defs><g id="a"><path d="M8.05 7.75q5.45 4.3-.5 5.3-6 1-10.3-.1Q-7.1 11.8-8.8 10.4l-.8-.6 6.8-3.25q1.55-1.2 3.6-1.5 1.9-.25 3.7 0 1.95.3 3.05 1.8l.5.95v-.05" fill-opacity=".322" fill-rule="evenodd" transform="translate(23.5 8)"/><path d="m-7.6-7.05.65.1q1.4.2 2.55.95l1.9 1.4q.25-.95-1.25-2.9Q.1-6.9.85-5.15q.7 1.7.05 3.6.65-.15-.95 3.3-.95 2-3.8 3.55.6-1.15.65-2.5 0-1.5-1-2.8-1.15-1.45-3.5-1.35l-.8.05q-1.55-.25-1.75-1.5-.25-1.45.75-2.6.75-.95 2.1-1.4l-.2-.25M-23 7q6.15-.3 6.3-5.1l.35-3.8q.5-2.75 2.85-4 1.15.95 1.75 2.15.65 1.4.65 3.25h.05l-.35.25-.45.3-.3.2q-.95.8-1.35 1.8-.65 1.5-2.05 2.6l-3.2 1.95q-1.35.6-4.2.4H-23" fill="#fc0" fill-rule="evenodd" transform="translate(23.5 8)"/><path d="m-7.6-7.05.2.25q-1.35.45-2.1 1.4-1 1.15-.75 2.6.2 1.25 1.75 1.5-1.45.2-2.55.8h-.05q0-1.85-.65-3.25-.6-1.2-1.75-2.15 2.15-1.2 5.9-1.15" fill="#ff0" fill-rule="evenodd" transform="translate(23.5 8)"/><path d="m-8.5-1.3.8-.05q2.35-.1 3.5 1.35 1 1.3 1 2.8-.05 1.35-.65 2.5-1.05-1.55-2.8-2.15-1.9-.7-3.65.3-3.5 1.8-5.95 4.5l3 .05.45.5-.5.25-.7.3-.25.1-3.05.4q-2.9-.8-5.65-2.55 2.85.2 4.2-.4l3.2-1.95q1.4-1.1 2.05-2.6.4-1 1.35-1.8l.3-.2.45-.3.35-.25q1.1-.6 2.55-.8" fill="#e4b001" fill-rule="evenodd" transform="translate(23.5 8)"/><path d="m-17.3 9.55 3.05-.4.25-.1.7-.3.5-.25-.45-.5-3-.05q2.45-2.7 5.95-4.5 1.75-1 3.65-.3 1.75.6 2.8 2.15l-.35.15-1.2.6-1 .35.05 2.7q-2.85.9-5.6 1l-.85.7q-1.6 1.05-3.5 1.05-2-.05-3.5-1.75l2.5-.55" fill="#cb8a21" fill-rule="evenodd" transform="translate(23.5 8)"/><path d="M.9-1.55q.65-1.9-.05-3.6Q.1-6.9-3.75-7.5q1.5 1.95 1.25 2.9L-4.4-6q-1.15-.75-2.55-.95l-.65-.1q-3.75-.05-5.9 1.15-2.35 1.25-2.85 4l-.35 3.8Q-16.85 6.7-23 7m5.7 2.55-2.5.55q1.5 1.7 3.5 1.75 1.9 0 3.5-1.05l.85-.7q2.75-.1 5.6-1M-22.95 7q2.75 1.75 5.65 2.55" fill="none" stroke="#a97e01" stroke-linecap="round" stroke-linejoin="round" transform="translate(23.5 8)"/><path d="M-10.6 5.65Q-8.85.8-4.2-1.9l1.2-.6q4-1.8 8 .25Q9.55.05 10.75 5 7.95 7.3 1.7 7.5L-5.15 7h-.2l-2-.45-3.25-.9" fill="#fff" fill-rule="evenodd" transform="translate(23.5 8)"/><path d="M10.6 13.75q-4.85-.3-9.4-2.55L-1.05 10l-2-1.25q-.1-.1-.15-.1l-1.3-1-.85-.65h.2Q-.6 9.25 2.3 8.85q2.95-.45 4 1.65 1 2.1 3.05 2.6 1.15.3 1.25.65" fill="#c36" fill-rule="evenodd" transform="translate(23.5 8)"/><path d="M-3.05 8.75q-1.05 2.65-3.4 4.55-.95.75-1.85 1.15l-.1-.15q2.2-1.9 3.35-4.6l.55-2.05 1.3 1q.05 0 .15.1M-5.35 7q-1.3 3.4-3.85 4.9-2.6 1.45-4.6 1.6.05-2.7 1.15-5.15.7-1.55 2.05-2.7l3.25.9 2 .45" fill="#fc0" fill-rule="evenodd" transform="translate(23.5 8)"/><path d="m10.75 5 .05.05.05-.05q4.35 2.15 8.2 1.6 3.75-.55.85 2.9l-1 1.05-1.55 1.3-.1.05-.65.45-1 .5-.1.05-3.15.75-1.75.1q-.1-.35-1.25-.65-2.05-.5-3.05-2.6-1.05-2.1-4-1.65-2.9.4-7.45-1.85l6.85.5q6.25-.2 9.05-2.5" fill="#f39" fill-rule="evenodd" transform="translate(23.5 8)"/><path d="M-10.6 5.65Q-8.85.8-4.2-1.9l1.2-.6q4-1.8 8 .25Q9.55.05 10.75 5m.1 0q4.35 2.15 8.2 1.6 3.75-.55.85 2.9l-1 1.05-1.55 1.3-.1.05m-.65.45-1 .5-.1.05-3.15.75-1.75.1q-4.85-.3-9.4-2.55L-1.05 10l-2-1.25q-.1-.1-.15-.1l-1.3-1-.85-.65-2-.45-3.25-.9" fill="none" stroke="#936" stroke-linecap="round" stroke-linejoin="round" transform="translate(23.5 8)"/><path d="M-3.05 8.75q-1.05 2.65-3.4 4.55-.95.75-1.85 1.15l-.5.3-1.15.65 1.55-1.1q2.2-1.9 3.35-4.6l.55-2.05M-5.35 7q-1.3 3.4-3.85 4.9-2.6 1.45-4.6 1.6.05-2.7 1.15-5.15.7-1.55 2.05-2.7Z" fill="none" stroke="#a97e01" stroke-linecap="round" stroke-linejoin="round" transform="translate(23.5 8)"/></g></defs></svg>

<?xml version="1.0" encoding="UTF-8" standalone="no"?>
<svg xmlns:xlink="http://www.w3.org/1999/xlink" height="92.9px" width="100.7px" xmlns="http://www.w3.org/2000/svg">
  <g transform="matrix(1.0, 0.0, 0.0, 1.0, 38.65, 49.75)">
    <use height="23.9" transform="matrix(1.0, 0.0, 0.0, 1.0, -23.5, -8.0)" width="45.15" xlink:href="#shape0"/>
    <use height="39.6" transform="matrix(0.5, 0.0, 0.0, 0.5, -3.6, -3.6)" width="32.7" xlink:href="#text0"/>
  </g>
  <defs>
    <g id="shape0" transform="matrix(1.0, 0.0, 0.0, 1.0, 23.5, 8.0)">
      <path d="M8.05 7.75 Q13.5 12.05 7.55 13.05 1.55 14.05 -2.75 12.95 -7.1 11.8 -8.8 10.4 L-9.6 9.8 -2.8 6.55 Q-1.25 5.35 0.8 5.05 2.7 4.8 4.5 5.05 6.45 5.35 7.55 6.85 L8.05 7.8 8.05 7.75" fill="#000000" fill-opacity="0.32156864" fill-rule="evenodd" stroke="none"/>
      <path d="M-7.6 -7.05 L-6.95 -6.95 Q-5.55 -6.75 -4.4 -6.0 L-2.5 -4.6 Q-2.25 -5.55 -3.75 -7.5 0.1 -6.9 0.85 -5.15 1.55 -3.45 0.9 -1.55 1.55 -1.7 -0.05 1.75 -1.0 3.75 -3.85 5.3 -3.25 4.15 -3.2 2.8 -3.2 1.3 -4.2 0.0 -5.35 -1.45 -7.7 -1.35 L-8.5 -1.3 Q-10.05 -1.55 -10.25 -2.8 -10.5 -4.25 -9.5 -5.4 -8.75 -6.35 -7.4 -6.8 L-7.6 -7.05 M-23.0 7.0 Q-16.85 6.7 -16.7 1.9 L-16.35 -1.9 Q-15.85 -4.65 -13.5 -5.9 -12.35 -4.95 -11.75 -3.75 -11.1 -2.35 -11.1 -0.5 L-11.05 -0.5 -11.4 -0.25 -11.85 0.05 -12.15 0.25 Q-13.1 1.05 -13.5 2.05 -14.15 3.55 -15.55 4.65 L-18.75 6.6 Q-20.1 7.2 -22.95 7.0 L-23.0 7.0" fill="#ffcc00" fill-rule="evenodd" stroke="none"/>
      <path d="M-7.6 -7.05 L-7.4 -6.8 Q-8.75 -6.35 -9.5 -5.4 -10.5 -4.25 -10.25 -2.8 -10.05 -1.55 -8.5 -1.3 -9.95 -1.1 -11.05 -0.5 L-11.1 -0.5 Q-11.1 -2.35 -11.75 -3.75 -12.35 -4.95 -13.5 -5.9 -11.35 -7.1 -7.6 -7.05" fill="#ffff00" fill-rule="evenodd" stroke="none"/>
      <path d="M-8.5 -1.3 L-7.7 -1.35 Q-5.35 -1.45 -4.2 0.0 -3.2 1.3 -3.2 2.8 -3.25 4.15 -3.85 5.3 -4.9 3.75 -6.65 3.15 -8.55 2.45 -10.3 3.45 -13.8 5.25 -16.25 7.95 L-13.25 8.0 -12.8 8.5 -13.3 8.75 -14.0 9.05 -14.25 9.15 -17.3 9.55 Q-20.2 8.75 -22.95 7.0 -20.1 7.2 -18.75 6.6 L-15.55 4.65 Q-14.15 3.55 -13.5 2.05 -13.1 1.05 -12.15 0.25 L-11.85 0.05 -11.4 -0.25 -11.05 -0.5 Q-9.95 -1.1 -8.5 -1.3" fill="#e4b001" fill-rule="evenodd" stroke="none"/>
      <path d="M-17.3 9.55 L-14.25 9.15 -14.0 9.05 -13.3 8.75 -12.8 8.5 -13.25 8.0 -16.25 7.95 Q-13.8 5.25 -10.3 3.45 -8.55 2.45 -6.65 3.15 -4.9 3.75 -3.85 5.3 L-4.2 5.45 -5.4 6.05 -6.4 6.4 -6.35 9.1 Q-9.2 10.0 -11.95 10.1 L-12.8 10.8 Q-14.4 11.85 -16.3 11.85 -18.3 11.8 -19.8 10.1 L-17.3 9.55" fill="#cb8a21" fill-rule="evenodd" stroke="none"/>
      <path d="M0.9 -1.55 Q1.55 -3.45 0.85 -5.15 0.1 -6.9 -3.75 -7.5 -2.25 -5.55 -2.5 -4.6 L-4.4 -6.0 Q-5.55 -6.75 -6.95 -6.95 L-7.6 -7.05 Q-11.35 -7.1 -13.5 -5.9 -15.85 -4.65 -16.35 -1.9 L-16.7 1.9 Q-16.85 6.7 -23.0 7.0 M-17.3 9.55 L-19.8 10.1 Q-18.3 11.8 -16.3 11.85 -14.4 11.85 -12.8 10.8 L-11.95 10.1 Q-9.2 10.0 -6.35 9.1 M-22.95 7.0 Q-20.2 8.75 -17.3 9.55" fill="none" stroke="#a97e01" stroke-linecap="round" stroke-linejoin="round" stroke-width="1.0"/>
      <path d="M-10.6 5.65 Q-8.85 0.8 -4.2 -1.9 L-3.0 -2.5 Q1.0 -4.3 5.0 -2.25 9.55 0.05 10.75 5.0 7.95 7.3 1.7 7.5 L-5.15 7.0 -5.35 7.0 -7.35 6.55 -10.6 5.65" fill="#ffffff" fill-rule="evenodd" stroke="none"/>
      <path d="M10.6 13.75 Q5.75 13.45 1.2 11.2 L-1.05 10.0 -3.05 8.75 Q-3.15 8.65 -3.2 8.65 L-4.5 7.65 -5.35 7.0 -5.15 7.0 Q-0.6 9.25 2.3 8.85 5.25 8.4 6.3 10.5 7.3 12.6 9.35 13.1 10.5 13.4 10.6 13.75" fill="#cc3366" fill-rule="evenodd" stroke="none"/>
      <path d="M-3.05 8.75 Q-4.1 11.4 -6.45 13.3 -7.4 14.05 -8.3 14.45 L-8.4 14.3 Q-6.2 12.4 -5.05 9.7 L-4.5 7.65 -3.2 8.65 Q-3.15 8.65 -3.05 8.75 M-5.35 7.0 Q-6.65 10.4 -9.2 11.9 -11.8 13.35 -13.8 13.5 -13.75 10.8 -12.65 8.35 -11.95 6.8 -10.6 5.65 L-7.35 6.55 -5.35 7.0" fill="#ffcc00" fill-rule="evenodd" stroke="none"/>
      <path d="M10.75 5.0 L10.8 5.05 10.85 5.0 Q15.2 7.15 19.05 6.6 22.8 6.05 19.9 9.5 L18.9 10.55 17.35 11.85 17.25 11.9 16.6 12.35 15.6 12.85 15.5 12.9 12.35 13.65 10.6 13.75 Q10.5 13.4 9.35 13.1 7.3 12.6 6.3 10.5 5.25 8.4 2.3 8.85 -0.6 9.25 -5.15 7.0 L1.7 7.5 Q7.95 7.3 10.75 5.0" fill="#ff3399" fill-rule="evenodd" stroke="none"/>
      <path d="M-10.6 5.65 Q-8.85 0.8 -4.2 -1.9 L-3.0 -2.5 Q1.0 -4.3 5.0 -2.25 9.55 0.05 10.75 5.0 M10.85 5.0 Q15.2 7.15 19.05 6.6 22.8 6.05 19.9 9.5 L18.9 10.55 17.35 11.85 17.25 11.9 M16.6 12.35 L15.6 12.85 15.5 12.9 12.35 13.65 10.6 13.75 Q5.75 13.45 1.2 11.2 L-1.05 10.0 -3.05 8.75 Q-3.15 8.65 -3.2 8.65 L-4.5 7.65 -5.35 7.0 -7.35 6.55 -10.6 5.65" fill="none" stroke="#993366" stroke-linecap="round" stroke-linejoin="round" stroke-width="1.0"/>
      <path d="M-3.05 8.75 Q-4.1 11.4 -6.45 13.3 -7.4 14.05 -8.3 14.45 L-8.8 14.75 -9.95 15.4 -8.4 14.3 Q-6.2 12.4 -5.05 9.7 L-4.5 7.65 M-5.35 7.0 Q-6.65 10.4 -9.2 11.9 -11.8 13.35 -13.8 13.5 -13.75 10.8 -12.65 8.35 -11.95 6.8 -10.6 5.65 Z" fill="none" stroke="#a97e01" stroke-linecap="round" stroke-linejoin="round" stroke-width="1.0"/>
    </g>
  </defs>
</svg>
